symbols/web/cabin/materialsymbolsrounded/cabin_grad200_20px.svg

<svg xmlns="http://www.w3.org/2000/svg" height="20" width="20"><path d="M5.083 15.479h9.771v-1.041H5.083Zm0-3.333h9.771v-1.042H5.083Zm.021-3.334h9.75v-.624l-.562-.417H5.688l-.584.458ZM8.75 5.479h2.458l-1.229-.937ZM3.938 17.771q-.459 0-.792-.333-.334-.334-.334-.792V9.979l-.083.042q-.354.312-.833.239-.479-.072-.792-.448-.292-.354-.219-.822.073-.469.448-.782l1.479-1.104V5.438q0-.459.344-.803.344-.343.802-.343.459 0 .802.343.344.344.344.803v-.084l4.208-3.208q.167-.125.334-.167.166-.041.333-.041t.333.041q.167.042.334.167l8 6.042q.375.312.448.77.073.459-.24.834-.312.375-.771.458-.458.083-.833-.229l-.104-.083v6.708q0 .458-.334.792-.333.333-.791.333Zm.124-14.313q-.604 0-.895-.479-.292-.479.021-1.083.416-.813 1.208-1.333.792-.521 1.771-.521.229 0 .385-.084.156-.083.323-.166.417-.459.719-.657.302-.197.718-.197.5 0 .823.468.323.469-.01 1.136-.333.75-1.135 1.281-.802.531-1.823.531-.209 0-.365.073t-.323.177q-.458.479-.708.667-.25.187-.709.187Z"/></svg>

<svg xmlns="http://www.w3.org/2000/svg" height="20" width="20"><path d="M5.083 15.479H14.854V14.438H5.083ZM5.083 12.146H14.854V11.104H5.083ZM5.104 8.812H14.854V8.188L14.292 7.771H5.688L5.104 8.229ZM8.75 5.479H11.208L9.979 4.542ZM3.938 17.771Q3.479 17.771 3.146 17.438Q2.812 17.104 2.812 16.646V9.979L2.729 10.021Q2.375 10.333 1.896 10.26Q1.417 10.188 1.104 9.812Q0.812 9.458 0.885 8.99Q0.958 8.521 1.333 8.208L2.812 7.104V5.438Q2.812 4.979 3.156 4.635Q3.5 4.292 3.958 4.292Q4.417 4.292 4.76 4.635Q5.104 4.979 5.104 5.438V5.354L9.312 2.146Q9.479 2.021 9.646 1.979Q9.812 1.938 9.979 1.938Q10.146 1.938 10.312 1.979Q10.479 2.021 10.646 2.146L18.646 8.188Q19.021 8.5 19.094 8.958Q19.167 9.417 18.854 9.792Q18.542 10.167 18.083 10.25Q17.625 10.333 17.25 10.021L17.146 9.938V16.646Q17.146 17.104 16.812 17.438Q16.479 17.771 16.021 17.771ZM4.062 3.458Q3.458 3.458 3.167 2.979Q2.875 2.5 3.188 1.896Q3.604 1.083 4.396 0.563Q5.188 0.042 6.167 0.042Q6.396 0.042 6.552 -0.042Q6.708 -0.125 6.875 -0.208Q7.292 -0.667 7.594 -0.865Q7.896 -1.062 8.312 -1.062Q8.812 -1.062 9.135 -0.594Q9.458 -0.125 9.125 0.542Q8.792 1.292 7.99 1.823Q7.188 2.354 6.167 2.354Q5.958 2.354 5.802 2.427Q5.646 2.5 5.479 2.604Q5.021 3.083 4.771 3.271Q4.521 3.458 4.062 3.458Z"/></svg>
